img/rating-logo3.svg

<svg fill="none" height="23" viewBox="0 0 104 23" width="104" xmlns="http://www.w3.org/2000/svg"><path d="m.549316 8.15348h9.420834 5.72105v-5.54166z" fill="#ff9d28"/><path d="m15.6914 2.6118v19.5885l7.1598-22.2003z" fill="#68c5ed"/><path d="m15.6914 8.15332h-5.72094l5.72094 14.03018z" fill="#044d80"/><path d="m.549316 8.15356 10.893884 3.59964-1.47305-3.59964z" fill="#e54747"/><path d="m35.2525 17.0269c-.0857.0837-.2227.1841-.4111.3013s-.4453.2512-.7537.3684c-.3083.1172-.6851.2344-1.1476.3181-.4453.0837-.9592.1339-1.5416.1339-1.1134 0-2.0897-.1842-2.9119-.519-.8222-.3516-1.4902-.8371-2.0212-1.4733s-.9249-1.3729-1.1647-2.2268c-.257-.8538-.3769-1.8082-.3769-2.8294 0-1.0213.1371-1.97566.4111-2.84626.2741-.87061.668-1.62402 1.2162-2.26023.531-.63621 1.2161-1.13849 2.0212-1.49008.805-.35159 1.7642-.53576 2.8605-.53576.531 0 1.0277.05023 1.4559.13394.4282.10046.8222.20091 1.1476.33485.3255.13394.5996.26788.8051.40182.2227.13394.3768.26788.4796.35159.1199.10045.2398.2344.3255.38508.0856.15068.137.3181.137.48553 0 .26788-.1028.53575-.3083.80363-.2056.26788-.4283.51902-.6852.75341-.1713-.16742-.3597-.33485-.5652-.50227-.2056-.16743-.4454-.3181-.7023-.45204-.257-.13394-.5481-.2344-.8736-.31811-.3254-.08371-.6851-.13394-1.0962-.13394-.7023 0-1.3018.13394-1.7814.41856s-.8565.63621-1.1477 1.08826c-.2911.45204-.4967.95432-.6166 1.52356s-.1884 1.15526-.1884 1.75796c0 .6362.0685 1.2389.1884 1.8249s.3426 1.0883.6509 1.5403c.3083.4521.7023.8037 1.199 1.0715.4968.2679 1.0963.4019 1.8328.4019.394 0 .7365-.0503 1.062-.134.3254-.1004.6166-.2176.8564-.3516.257-.1339.4625-.2846.6509-.4185.1884-.1507.3426-.2847.4625-.3851.0856.1004.1713.2176.2912.3516.1199.1339.2227.2846.3083.4185.1028.1507.1713.3014.2569.4521.0686.1507.1028.2846.1028.4018 0 .1842-.0342.3181-.1028.4521-.0685.1172-.1884.2511-.3254.4018zm10.6884-1.5571c0 1.0715.1541 1.8584.4796 2.344-.257.1004-.4796.1674-.7023.2009s-.4454.0669-.6852.0669c-.4967 0-.8735-.1004-1.1305-.2846-.2569-.1841-.4282-.4688-.4967-.8204-.3083.3182-.7023.586-1.2161.8037-.4968.2176-1.1134.3181-1.8328.3181-.3769 0-.7537-.0502-1.1305-.1507-.3769-.1004-.7194-.2679-1.0278-.5023-.3083-.2344-.5481-.5357-.7536-.9208-.1884-.3851-.2912-.8539-.2912-1.4064 0-.6864.1713-1.2556.5139-1.691.3425-.4353.7707-.7701 1.2846-1.0212.5139-.2512 1.0791-.4186 1.6615-.5191.5995-.1004 1.1476-.1506 1.6444-.1841.1713-.0168.3254-.0168.4967-.0168h.4453v-.3683c0-.519-.137-.8873-.4282-1.1217-.2912-.21769-.7536-.33489-1.3874-.33489-.5995 0-1.1305.10045-1.593.28459-.4625.1842-.9249.4018-1.3703.653-.1884-.2344-.3597-.4855-.4625-.7702-.1199-.28458-.1712-.4855-.1712-.61944 0-.18416.1027-.36833.3254-.55249.2227-.18417.5139-.33486.8907-.48554s.805-.25113 1.3018-.35159c.4796-.08371.9935-.13394 1.5416-.13394.7536 0 1.3874.06698 1.9013.21766.5138.15068.9421.38507 1.2675.68643.3254.31811.5653.70318.7023 1.17197.137.46884.2055 1.02134.2055 1.64074zm-2.6721-2.3607h-.2912c-.1028 0-.1884 0-.2912.0168-.3426.0335-.6852.067-1.0277.1172-.3426.0502-.6509.1507-.9079.2846-.2569.1339-.4796.3181-.6509.5358-.1712.2176-.2569.5022-.2569.8371 0 .3851.1028.7032.3255.971.2226.2679.5995.4019 1.1305.4019.2569 0 .5138-.0335.7536-.1005s.4454-.1507.6338-.2679.3254-.2344.4282-.3516c.1028-.1339.1542-.2511.1542-.3516zm7.8621-4.01814c.2227-.25114.5652-.51902 1.0448-.7869s1.062-.40181 1.7814-.40181c.5139 0 1.0106.08371 1.4731.25113.4625.16743.8736.45205 1.2333.82038.3597.38508.6509.88735.8564 1.50684.2227.6194.3255 1.3896.3255 2.3104 0 1.0548-.1199 1.9422-.3769 2.6286-.2569.6864-.5652 1.2389-.9592 1.624-.3939.4018-.8393.6865-1.3189.8539s-.9763.2511-1.4559.2511c-.394 0-.7537-.0502-1.0449-.1339s-.5481-.1842-.7537-.3014c-.2055-.1004-.3597-.2176-.4796-.3181-.1027-.1004-.1884-.1842-.2055-.2176v5.0227h-2.8434v-13.99669c.0685-.01675.1542-.03348.2569-.03348.0857-.01675.1885-.01675.2912-.03349.1199 0 .2398-.01674.394-.01674.4625 0 .8564.06697 1.1819.21765.3083.15068.5138.40182.5995.75341zm3.7683 3.76704c0-.4018-.0342-.7869-.1028-1.1385-.0685-.3516-.1884-.6529-.3425-.9208-.1542-.2512-.3769-.4521-.6509-.6027-.2741-.1507-.5995-.21769-.9935-.21769-.5824 0-.9935.11719-1.2161.31809-.2227.2177-.3426.4521-.3426.7199v4.3363c.1028.1172.3083.2344.5995.3851s.6166.2177.9935.2177c.7022 0 1.2161-.2679 1.5587-.8204.3254-.5358.4967-1.2892.4967-2.277zm5.1387 3.5159c-.1028-.2679-.1542-.5525-.1885-.8538-.0342-.3014-.0342-.6028-.0342-.9041v-9.45951c.1027-.01675.2055-.03349.3083-.03349.1028-.01674.2055-.01674.3083-.03348.1028 0 .2227-.01674.3255-.01674.2226 0 .4453.01674.668.06696.2227.03349.4282.1172.5995.25114.1884.1172.3254.28462.4453.50227.1028.21766.1713.48553.1713.82038v1.4566h2.9291v2.05927h-2.9119v4.3531c0 .9543.3939 1.4231 1.1818 1.4231.1885 0 .3769-.0335.5482-.0837.1713-.067.3254-.134.4624-.2009.1371-.067.257-.1507.3597-.2344.1028-.0837.1713-.1507.2227-.1842.2056.3014.3769.5525.4796.7702.1028.2176.1713.4185.1713.6194 0 .1842-.0685.3516-.2227.519-.1541.1675-.3597.3349-.6166.4688-.2569.1507-.5824.2679-.9592.3516s-.7879.134-1.2333.134c-.8564 0-1.5416-.1675-2.0212-.4856-.4453-.3516-.7879-.7701-.9934-1.3059zm12.7266-.2679c.3426 0 .6509-.0334.925-.1172.2569-.0669.4967-.1674.7194-.2678.2056-.1005.394-.2344.5481-.3516.1542-.134.2912-.2512.4111-.3516.1713.2009.3426.4688.531.7869s.2741.586.2741.7869c0 .3013-.1713.5692-.5139.8203-.2912.2177-.7023.4019-1.2504.5693-.531.1507-1.1647.2344-1.8842.2344-.6508 0-1.3018-.0837-1.9355-.2512-.6338-.1674-1.199-.452-1.6958-.8538-.4967-.4018-.8907-.9543-1.199-1.6408-.3083-.6864-.4625-1.557-.4625-2.595 0-.8539.1371-1.5906.4111-2.2101.2741-.6194.6338-1.13844 1.0791-1.54026.4454-.40182.9593-.70318 1.5416-.90409.5653-.18417 1.1477-.28462 1.7472-.28462.7708 0 1.4388.1172 1.9869.35159s.9764.5525 1.3189.95432c.3426.40182.5824.85386.7366 1.37286.1541.519.2226 1.0548.2226 1.624v.2847c0 .1172.0001.2176-.0171.3516 0 .1171-.0171.2343-.0171.3515s-.0171.2009-.0343.2679h-6.1492c.0514.7534.2912 1.3729.7194 1.8752.4111.4855 1.0791.7366 1.9869.7366zm.9593-4.1353c0-.653-.1371-1.1888-.394-1.5906-.2569-.40179-.7194-.61944-1.3874-.61944-.5824 0-1.0278.20091-1.3703.58594-.3426.3851-.5139.9209-.5139 1.6241zm7.5024-2.82952c.0856-.11719.1884-.25113.3254-.40181s.3083-.28462.5139-.40182c.2055-.1172.4282-.21765.668-.30137.2398-.08371.4967-.11719.7879-.11719.1713 0 .3426.01674.531.03348.1884.03349.3597.08372.5139.15069.1541.06697.2912.16742.3939.30136.1028.13394.1542.28462.1542.46878 0 .30137-.0685.63622-.2227 1.02129-.1541.38511-.3083.71991-.4624.98781-.2398-.1842-.4797-.3348-.7023-.4353-.2398-.1005-.5139-.1507-.8393-.1507-.4283 0-.788.1172-1.0792.3683-.2911.2512-.4453.5358-.4453.8874v6.5965h-2.8434v-9.96173c.0685-.01674.1542-.03349.257-.03349.0856-.01674.1884-.01674.2911-.03348.1028 0 .2398-.01674.394-.01674.4454 0 .8393.08371 1.1648.25113.3083.18417.5138.4353.5995.78689zm8.0676 0c.0857-.11719.1884-.25113.3255-.40181.137-.15068.3083-.28462.5138-.40182.2056-.1172.4283-.21765.6681-.30137.2398-.08371.4967-.11719.7879-.11719.1713 0 .3426.01674.531.03348.1884.03349.3597.08372.5138.15069.1542.06697.2912.16742.394.30136s.1542.28462.1542.46878c0 .30137-.0685.63622-.2227 1.02129-.1542.38511-.3083.71991-.4625.98781-.2398-.1842-.4796-.3348-.7023-.4353-.2398-.1005-.5138-.1507-.8393-.1507-.4282 0-.7879.1172-1.0791.3683-.2912.2512-.4453.5358-.4453.8874v6.5965h-2.8434v-9.96173c.0685-.01674.1541-.03349.2569-.03349.0857-.01674.1884-.01674.2912-.03348.1028 0 .2398-.01674.394-.01674.4453 0 .8393.08371 1.1647.25113.3083.18417.5139.4353.5995.78689zm13.5492 6.32862c0 1.0715.154 1.8584.479 2.344-.257.1004-.479.1674-.702.2009s-.445.0669-.685.0669c-.497 0-.874-.1004-1.131-.2846-.257-.1841-.428-.4688-.496-.8204-.3087.3182-.7026.586-1.2165.8037-.4967.2176-1.1134.3181-1.8328.3181-.3768 0-.7536-.0502-1.1305-.1507-.3768-.1004-.7194-.2679-1.0277-.5023s-.5481-.5357-.7537-.9208c-.1884-.3851-.2912-.8539-.2912-1.4064 0-.6864.1713-1.2556.5139-1.691.3426-.4353.7708-.7701 1.2847-1.0212.5138-.2512 1.0791-.4186 1.6614-.5191.5996-.1004 1.1477-.1506 1.6444-.1841.1713-.0168.3255-.0168.4967-.0168h.4453v-.3683c0-.519-.1369-.8873-.4281-1.1217-.2912-.21769-.7537-.33489-1.3875-.33489-.5995 0-1.1305.10045-1.5929.28459-.4625.1842-.925.4018-1.3703.653-.1884-.2344-.3597-.4855-.4625-.7702-.1199-.28458-.1713-.4855-.1713-.61944 0-.18416.1028-.36833.3254-.55249.2227-.18417.5139-.33486.8907-.48554.3769-.15068.8051-.25113 1.3018-.35159.4796-.08371.9935-.13394 1.5416-.13394.7537 0 1.3871.06698 1.9011.21766s.942.38507 1.268.68643c.325.31811.565.70318.702 1.17197.137.46884.206 1.02134.206 1.64074zm-2.672-2.3607h-.2916c-.1028 0-.1884 0-.2912.0168-.3425.0335-.6851.067-1.0277.1172s-.6509.1507-.9078.2846c-.257.1339-.4796.3181-.6509.5358-.1713.2176-.2569.5022-.2569.8371 0 .3851.1027.7032.3254.971.2227.2679.5995.4019 1.1305.4019.2569 0 .5139-.0335.7537-.1005s.4453-.1507.6337-.2679.3255-.2344.4278-.3516c.103-.1339.155-.2511.155-.3516z" fill="#044d80"/></svg>

<svg width="104" height="23" viewBox="0 0 104 23" fill="none" xmlns="http://www.w3.org/2000/svg">
<path d="M0.549316 8.15348H9.97015H15.6912V2.61182L0.549316 8.15348Z" fill="#FF9D28"/>
<path d="M15.6914 2.6118V22.2003L22.8512 0L15.6914 2.6118Z" fill="#68C5ED"/>
<path d="M15.6914 8.15332H9.97046L15.6914 22.1835V8.15332Z" fill="#044D80"/>
<path d="M0.549316 8.15356L11.4432 11.7532L9.97015 8.15356H0.549316Z" fill="#E54747"/>
<path d="M35.2525 17.0269C35.1668 17.1106 35.0298 17.211 34.8414 17.3282C34.653 17.4454 34.3961 17.5794 34.0877 17.6966C33.7794 17.8138 33.4026 17.931 32.9401 18.0147C32.4948 18.0984 31.9809 18.1486 31.3985 18.1486C30.2851 18.1486 29.3088 17.9644 28.4866 17.6296C27.6644 17.278 26.9964 16.7925 26.4654 16.1563C25.9344 15.5201 25.5405 14.7834 25.3007 13.9295C25.0437 13.0757 24.9238 12.1213 24.9238 11.1001C24.9238 10.0788 25.0609 9.12444 25.3349 8.25384C25.609 7.38323 26.0029 6.62982 26.5511 5.99361C27.0821 5.3574 27.7672 4.85512 28.5723 4.50353C29.3773 4.15194 30.3365 3.96777 31.4328 3.96777C31.9638 3.96777 32.4605 4.018 32.8887 4.10171C33.3169 4.20217 33.7109 4.30262 34.0363 4.43656C34.3618 4.5705 34.6359 4.70444 34.8414 4.83838C35.0641 4.97232 35.2182 5.10626 35.321 5.18997C35.4409 5.29042 35.5608 5.42437 35.6465 5.57505C35.7321 5.72573 35.7835 5.89315 35.7835 6.06058C35.7835 6.32846 35.6807 6.59633 35.4752 6.86421C35.2696 7.13209 35.0469 7.38323 34.79 7.61762C34.6187 7.4502 34.4303 7.28277 34.2248 7.11535C34.0192 6.94792 33.7794 6.79725 33.5225 6.66331C33.2655 6.52937 32.9744 6.42891 32.6489 6.3452C32.3235 6.26149 31.9638 6.21126 31.5527 6.21126C30.8504 6.21126 30.2509 6.3452 29.7713 6.62982C29.2917 6.91444 28.9148 7.26603 28.6236 7.71808C28.3325 8.17012 28.1269 8.6724 28.007 9.24164C27.8871 9.81088 27.8186 10.3969 27.8186 10.9996C27.8186 11.6358 27.8871 12.2385 28.007 12.8245C28.1269 13.4105 28.3496 13.9128 28.6579 14.3648C28.9662 14.8169 29.3602 15.1685 29.8569 15.4363C30.3537 15.7042 30.9532 15.8382 31.6897 15.8382C32.0837 15.8382 32.4262 15.7879 32.7517 15.7042C33.0771 15.6038 33.3683 15.4866 33.6081 15.3526C33.8651 15.2187 34.0706 15.068 34.259 14.9341C34.4474 14.7834 34.6016 14.6494 34.7215 14.549C34.8071 14.6494 34.8928 14.7666 35.0127 14.9006C35.1326 15.0345 35.2354 15.1852 35.321 15.3191C35.4238 15.4698 35.4923 15.6205 35.5779 15.7712C35.6465 15.9219 35.6807 16.0558 35.6807 16.173C35.6807 16.3572 35.6465 16.4911 35.5779 16.6251C35.5094 16.7423 35.3895 16.8762 35.2525 17.0269ZM45.9409 15.4698C45.9409 16.5413 46.095 17.3282 46.4205 17.8138C46.1635 17.9142 45.9409 17.9812 45.7182 18.0147C45.4955 18.0482 45.2728 18.0816 45.033 18.0816C44.5363 18.0816 44.1595 17.9812 43.9025 17.797C43.6456 17.6129 43.4743 17.3282 43.4058 16.9766C43.0975 17.2948 42.7035 17.5626 42.1897 17.7803C41.6929 17.9979 41.0763 18.0984 40.3569 18.0984C39.98 18.0984 39.6032 18.0482 39.2264 17.9477C38.8495 17.8473 38.507 17.6798 38.1986 17.4454C37.8903 17.211 37.6505 16.9097 37.445 16.5246C37.2566 16.1395 37.1538 15.6707 37.1538 15.1182C37.1538 14.4318 37.3251 13.8626 37.6677 13.4272C38.0102 12.9919 38.4384 12.6571 38.9523 12.406C39.4662 12.1548 40.0314 11.9874 40.6138 11.8869C41.2133 11.7865 41.7614 11.7363 42.2582 11.7028C42.4295 11.686 42.5836 11.686 42.7549 11.686H43.2002V11.3177C43.2002 10.7987 43.0632 10.4304 42.772 10.196C42.4808 9.97831 42.0184 9.86111 41.3846 9.86111C40.7851 9.86111 40.2541 9.96156 39.7916 10.1457C39.3291 10.3299 38.8667 10.5475 38.4213 10.7987C38.2329 10.5643 38.0616 10.3132 37.9588 10.0285C37.8389 9.74392 37.7876 9.543 37.7876 9.40906C37.7876 9.2249 37.8903 9.04073 38.113 8.85657C38.3357 8.6724 38.6269 8.52171 39.0037 8.37103C39.3805 8.22035 39.8087 8.1199 40.3055 8.01944C40.7851 7.93573 41.299 7.8855 41.8471 7.8855C42.6007 7.8855 43.2345 7.95248 43.7484 8.10316C44.2622 8.25384 44.6905 8.48823 45.0159 8.78959C45.3413 9.1077 45.5812 9.49277 45.7182 9.96156C45.8552 10.4304 45.9237 10.9829 45.9237 11.6023L45.9409 15.4698ZM43.2688 13.1091H42.9776C42.8748 13.1091 42.7892 13.1091 42.6864 13.1259C42.3438 13.1594 42.0012 13.1929 41.6587 13.2431C41.3161 13.2933 41.0078 13.3938 40.7508 13.5277C40.4939 13.6616 40.2712 13.8458 40.0999 14.0635C39.9287 14.2811 39.843 14.5657 39.843 14.9006C39.843 15.2857 39.9458 15.6038 40.1685 15.8716C40.3911 16.1395 40.768 16.2735 41.299 16.2735C41.5559 16.2735 41.8128 16.24 42.0526 16.173C42.2924 16.106 42.498 16.0223 42.6864 15.9051C42.8748 15.7879 43.0118 15.6707 43.1146 15.5535C43.2174 15.4196 43.2688 15.3024 43.2688 15.2019V13.1091ZM51.1309 9.09096C51.3536 8.83982 51.6961 8.57194 52.1757 8.30406C52.6553 8.03618 53.2377 7.90225 53.9571 7.90225C54.471 7.90225 54.9677 7.98596 55.4302 8.15338C55.8927 8.32081 56.3038 8.60543 56.6635 8.97376C57.0232 9.35884 57.3144 9.86111 57.5199 10.4806C57.7426 11.1 57.8454 11.8702 57.8454 12.791C57.8454 13.8458 57.7255 14.7332 57.4685 15.4196C57.2116 16.106 56.9033 16.6585 56.5093 17.0436C56.1154 17.4454 55.67 17.7301 55.1904 17.8975C54.7108 18.0649 54.2141 18.1486 53.7345 18.1486C53.3405 18.1486 52.9808 18.0984 52.6896 18.0147C52.3984 17.931 52.1415 17.8305 51.9359 17.7133C51.7304 17.6129 51.5762 17.4957 51.4563 17.3952C51.3536 17.2948 51.2679 17.211 51.2508 17.1776V22.2003H48.4074V8.20361C48.4759 8.18686 48.5616 8.17013 48.6643 8.17013C48.75 8.15338 48.8528 8.15338 48.9555 8.13664C49.0754 8.13664 49.1953 8.1199 49.3495 8.1199C49.812 8.1199 50.2059 8.18687 50.5314 8.33755C50.8397 8.48823 51.0452 8.73937 51.1309 9.09096ZM54.8992 12.858C54.8992 12.4562 54.865 12.0711 54.7964 11.7195C54.7279 11.3679 54.608 11.0666 54.4539 10.7987C54.2997 10.5475 54.077 10.3466 53.803 10.196C53.5289 10.0453 53.2035 9.97831 52.8095 9.97831C52.2271 9.97831 51.816 10.0955 51.5934 10.2964C51.3707 10.5141 51.2508 10.7485 51.2508 11.0163V15.3526C51.3536 15.4698 51.5591 15.587 51.8503 15.7377C52.1415 15.8884 52.4669 15.9554 52.8438 15.9554C53.546 15.9554 54.0599 15.6875 54.4025 15.135C54.7279 14.5992 54.8992 13.8458 54.8992 12.858ZM60.0379 16.3739C59.9351 16.106 59.8837 15.8214 59.8494 15.5201C59.8152 15.2187 59.8152 14.9173 59.8152 14.616V5.15649C59.9179 5.13974 60.0207 5.123 60.1235 5.123C60.2263 5.10626 60.329 5.10626 60.4318 5.08952C60.5346 5.08952 60.6545 5.07278 60.7573 5.07278C60.9799 5.07278 61.2026 5.08952 61.4253 5.13974C61.648 5.17323 61.8535 5.25694 62.0248 5.39088C62.2132 5.50808 62.3502 5.6755 62.4701 5.89315C62.5729 6.11081 62.6414 6.37868 62.6414 6.71353V8.17013H65.5705V10.2294H62.6586V14.5825C62.6586 15.5368 63.0525 16.0056 63.8404 16.0056C64.0289 16.0056 64.2173 15.9721 64.3886 15.9219C64.5599 15.8549 64.714 15.7879 64.851 15.721C64.9881 15.654 65.108 15.5703 65.2107 15.4866C65.3135 15.4029 65.382 15.3359 65.4334 15.3024C65.639 15.6038 65.8103 15.8549 65.913 16.0726C66.0158 16.2902 66.0843 16.4911 66.0843 16.692C66.0843 16.8762 66.0158 17.0436 65.8616 17.211C65.7075 17.3785 65.5019 17.5459 65.245 17.6798C64.9881 17.8305 64.6626 17.9477 64.2858 18.0314C63.909 18.1151 63.4979 18.1654 63.0525 18.1654C62.1961 18.1654 61.5109 17.9979 61.0313 17.6798C60.586 17.3282 60.2434 16.9097 60.0379 16.3739ZM72.7645 16.106C73.1071 16.106 73.4154 16.0726 73.6895 15.9888C73.9464 15.9219 74.1862 15.8214 74.4089 15.721C74.6145 15.6205 74.8029 15.4866 74.957 15.3694C75.1112 15.2354 75.2482 15.1182 75.3681 15.0178C75.5394 15.2187 75.7107 15.4866 75.8991 15.8047C76.0875 16.1228 76.1732 16.3907 76.1732 16.5916C76.1732 16.8929 76.0019 17.1608 75.6593 17.4119C75.3681 17.6296 74.957 17.8138 74.4089 17.9812C73.8779 18.1319 73.2442 18.2156 72.5247 18.2156C71.8739 18.2156 71.2229 18.1319 70.5892 17.9644C69.9554 17.797 69.3902 17.5124 68.8934 17.1106C68.3967 16.7088 68.0027 16.1563 67.6944 15.4698C67.3861 14.7834 67.2319 13.9128 67.2319 12.8748C67.2319 12.0209 67.369 11.2842 67.643 10.6647C67.9171 10.0453 68.2768 9.52626 68.7221 9.12444C69.1675 8.72262 69.6814 8.42126 70.2637 8.22035C70.829 8.03618 71.4114 7.93573 72.0109 7.93573C72.7817 7.93573 73.4497 8.05293 73.9978 8.28732C74.5459 8.52171 74.9742 8.83982 75.3167 9.24164C75.6593 9.64346 75.8991 10.0955 76.0533 10.6145C76.2074 11.1335 76.2759 11.6693 76.2759 12.2385V12.5232C76.2759 12.6404 76.276 12.7408 76.2588 12.8748C76.2588 12.9919 76.2417 13.1091 76.2417 13.2263C76.2417 13.3435 76.2246 13.4272 76.2074 13.4942H70.0582C70.1096 14.2476 70.3494 14.8671 70.7776 15.3694C71.1887 15.8549 71.8567 16.106 72.7645 16.106ZM73.7238 11.9707C73.7238 11.3177 73.5867 10.7819 73.3298 10.3801C73.0729 9.97831 72.6104 9.76066 71.9424 9.76066C71.36 9.76066 70.9146 9.96157 70.5721 10.3466C70.2295 10.7317 70.0582 11.2675 70.0582 11.9707H73.7238ZM81.2262 9.14118C81.3118 9.02399 81.4146 8.89005 81.5516 8.73937C81.6886 8.58869 81.8599 8.45475 82.0655 8.33755C82.271 8.22035 82.4937 8.1199 82.7335 8.03618C82.9733 7.95247 83.2302 7.91899 83.5214 7.91899C83.6927 7.91899 83.864 7.93573 84.0524 7.95247C84.2408 7.98596 84.4121 8.03619 84.5663 8.10316C84.7204 8.17013 84.8575 8.27058 84.9602 8.40452C85.063 8.53846 85.1144 8.68914 85.1144 8.8733C85.1144 9.17467 85.0459 9.50952 84.8917 9.89459C84.7376 10.2797 84.5834 10.6145 84.4293 10.8824C84.1895 10.6982 83.9496 10.5476 83.727 10.4471C83.4872 10.3466 83.2131 10.2964 82.8877 10.2964C82.4594 10.2964 82.0997 10.4136 81.8085 10.6647C81.5174 10.9159 81.3632 11.2005 81.3632 11.5521V18.1486H78.5198V8.18687C78.5883 8.17013 78.674 8.15338 78.7768 8.15338C78.8624 8.13664 78.9652 8.13664 79.0679 8.1199C79.1707 8.1199 79.3077 8.10316 79.4619 8.10316C79.9073 8.10316 80.3012 8.18687 80.6267 8.35429C80.935 8.53846 81.1405 8.78959 81.2262 9.14118ZM89.2938 9.14118C89.3795 9.02399 89.4822 8.89005 89.6193 8.73937C89.7563 8.58869 89.9276 8.45475 90.1331 8.33755C90.3387 8.22035 90.5614 8.1199 90.8012 8.03618C91.041 7.95247 91.2979 7.91899 91.5891 7.91899C91.7604 7.91899 91.9317 7.93573 92.1201 7.95247C92.3085 7.98596 92.4798 8.03619 92.6339 8.10316C92.7881 8.17013 92.9251 8.27058 93.0279 8.40452C93.1307 8.53846 93.1821 8.68914 93.1821 8.8733C93.1821 9.17467 93.1136 9.50952 92.9594 9.89459C92.8052 10.2797 92.6511 10.6145 92.4969 10.8824C92.2571 10.6982 92.0173 10.5476 91.7946 10.4471C91.5548 10.3466 91.2808 10.2964 90.9553 10.2964C90.5271 10.2964 90.1674 10.4136 89.8762 10.6647C89.585 10.9159 89.4309 11.2005 89.4309 11.5521V18.1486H86.5875V8.18687C86.656 8.17013 86.7416 8.15338 86.8444 8.15338C86.9301 8.13664 87.0328 8.13664 87.1356 8.1199C87.2384 8.1199 87.3754 8.10316 87.5296 8.10316C87.9749 8.10316 88.3689 8.18687 88.6943 8.35429C89.0026 8.53846 89.2082 8.78959 89.2938 9.14118ZM102.843 15.4698C102.843 16.5413 102.997 17.3282 103.322 17.8138C103.065 17.9142 102.843 17.9812 102.62 18.0147C102.397 18.0482 102.175 18.0816 101.935 18.0816C101.438 18.0816 101.061 17.9812 100.804 17.797C100.547 17.6129 100.376 17.3282 100.308 16.9766C99.9993 17.2948 99.6054 17.5626 99.0915 17.7803C98.5948 17.9979 97.9781 18.0984 97.2587 18.0984C96.8819 18.0984 96.5051 18.0482 96.1282 17.9477C95.7514 17.8473 95.4088 17.6798 95.1005 17.4454C94.7922 17.211 94.5524 16.9097 94.3468 16.5246C94.1584 16.1395 94.0556 15.6707 94.0556 15.1182C94.0556 14.4318 94.2269 13.8626 94.5695 13.4272C94.9121 12.9919 95.3403 12.6571 95.8542 12.406C96.368 12.1548 96.9333 11.9874 97.5156 11.8869C98.1152 11.7865 98.6633 11.7363 99.16 11.7028C99.3313 11.686 99.4855 11.686 99.6567 11.686H100.102V11.3177C100.102 10.7987 99.9651 10.4304 99.6739 10.196C99.3827 9.97831 98.9202 9.86111 98.2864 9.86111C97.6869 9.86111 97.1559 9.96156 96.6935 10.1457C96.231 10.3299 95.7685 10.5475 95.3232 10.7987C95.1348 10.5643 94.9635 10.3132 94.8607 10.0285C94.7408 9.74392 94.6894 9.543 94.6894 9.40906C94.6894 9.2249 94.7922 9.04073 95.0148 8.85657C95.2375 8.6724 95.5287 8.52171 95.9055 8.37103C96.2824 8.22035 96.7106 8.1199 97.2073 8.01944C97.6869 7.93573 98.2008 7.8855 98.7489 7.8855C99.5026 7.8855 100.136 7.95248 100.65 8.10316C101.164 8.25384 101.592 8.48823 101.918 8.78959C102.243 9.1077 102.483 9.49277 102.62 9.96156C102.757 10.4304 102.826 10.9829 102.826 11.6023L102.843 15.4698ZM100.171 13.1091H99.8794C99.7766 13.1091 99.691 13.1091 99.5882 13.1259C99.2457 13.1594 98.9031 13.1929 98.5605 13.2431C98.2179 13.2933 97.9096 13.3938 97.6527 13.5277C97.3957 13.6616 97.1731 13.8458 97.0018 14.0635C96.8305 14.2811 96.7449 14.5657 96.7449 14.9006C96.7449 15.2857 96.8476 15.6038 97.0703 15.8716C97.293 16.1395 97.6698 16.2735 98.2008 16.2735C98.4577 16.2735 98.7147 16.24 98.9545 16.173C99.1943 16.106 99.3998 16.0223 99.5882 15.9051C99.7766 15.7879 99.9137 15.6707 100.016 15.5535C100.119 15.4196 100.171 15.3024 100.171 15.2019V13.1091Z" fill="#044D80"/>
</svg>
